src/status/24/xchat-panel.svg

<svg width="24" height="24" viewBox="0 0 24 24" xmlns="http://www.w3.org/2000/svg">
 <path d="m5.472656 1.492188c-0.382812 0-0.785156 0.125-1.078125 0.421874l-2.109375 2.109376c-0.589844 0.585937-0.589844 1.566406 0 2.15625l1.3125 1.3125h8.53125l-5.578125-5.578126c-0.292969-0.296874-0.695312-0.421874-1.078125-0.421874zm13.78125 0c-0.394531 0-0.785156 0.125-1.078125 0.421874l-5.578125 5.578126h8.53125l1.3125-1.3125c0.585938-0.589844 0.585938-1.570313 0-2.15625l-2.109375-2.109376c-0.292969-0.296874-0.6875-0.421874-1.078125-0.421874zm-12.171875 6.761718c-0.398437 0.015625-0.714843 0.339844-0.71875 0.738282v5.246093c-0.015625 1.015625 1.511719 1.015625 1.5 0v-2.25h1.5v2.25c-0.015625 1.015625 1.511719 1.015625 1.5 0v-3c0-0.410156-0.335937-0.746093-0.75-0.746093h-2.25v-1.5c-0.007812-0.421876-0.359375-0.757813-0.78125-0.738282zm13.496094 0c-0.394531 0.015625-0.710937 0.339844-0.714844 0.738282v1.5h-0.75c-0.96875 0.027343-0.96875 1.46875 0 1.496093h0.75v2.25c0 0.414063 0.335938 0.75 0.75 0.75h2.25c1.015625 0.015625 1.015625-1.511719 0-1.5h-1.5v-1.5h1.5c1.03125 0.035157 1.03125-1.53125 0-1.496093h-1.5v-1.5c-0.007812-0.421876-0.359375-0.757813-0.78125-0.738282zm-19.464844 2.238282c-0.414062 0-0.75 0.332031-0.75 0.746093v3c0 0.414063 0.335938 0.75 0.75 0.75h3c1.015625 0.015625 1.015625-1.511719 0-1.5h-2.25v-1.5h2.25c1.015625 0.015625 1.015625-1.511719 0-1.5h-3zm12 0c-0.414062 0-0.75 0.332031-0.75 0.746093v3c0 0.414063 0.335938 0.75 0.75 0.75h1.125c1.015625 0.015625 1.015625-1.511719 0-1.5h-0.375v-1.5h1.5v2.25c-0.015625 1.015625 1.515625 1.015625 1.5 0v-3c0-0.414062-0.335937-0.746093-0.75-0.746093zm-9.515625 5.996093-1.3125 1.3125c-0.585937 0.589844-0.585937 1.570313 0 2.160157l2.109375 2.109374c0.585938 0.585938 1.570313 0.585938 2.15625 0l5.578125-5.582031zm9 0 5.578125 5.582031c0.585938 0.585938 1.570313 0.585938 2.15625 0l2.109375-2.109374c0.589844-0.589844 0.589844-1.570313 0-2.160157l-1.3125-1.3125z" fill="rgb(18.039216%, 20.392157%, 25.098041%)" fill-rule="evenodd"/>
</svg>

<?xml version="1.0" encoding="UTF-8"?>
<svg xmlns="http://www.w3.org/2000/svg" xmlns:xlink="http://www.w3.org/1999/xlink" width="24" height="24" viewBox="0 0 24 24">
<path fill-rule="evenodd" fill="rgb(18.039216%, 20.392157%, 25.098041%)" fill-opacity="1" d="M 5.472656 1.492188 C 5.089844 1.492188 4.6875 1.617188 4.394531 1.914062 L 2.285156 4.023438 C 1.695312 4.609375 1.695312 5.589844 2.285156 6.179688 L 3.597656 7.492188 L 12.128906 7.492188 L 6.550781 1.914062 C 6.257812 1.617188 5.855469 1.492188 5.472656 1.492188 Z M 19.253906 1.492188 C 18.859375 1.492188 18.46875 1.617188 18.175781 1.914062 L 12.597656 7.492188 L 21.128906 7.492188 L 22.441406 6.179688 C 23.027344 5.589844 23.027344 4.609375 22.441406 4.023438 L 20.332031 1.914062 C 20.039062 1.617188 19.644531 1.492188 19.253906 1.492188 Z M 7.082031 8.253906 C 6.683594 8.269531 6.367188 8.59375 6.363281 8.992188 L 6.363281 14.238281 C 6.347656 15.253906 7.875 15.253906 7.863281 14.238281 L 7.863281 11.988281 L 9.363281 11.988281 L 9.363281 14.238281 C 9.347656 15.253906 10.875 15.253906 10.863281 14.238281 L 10.863281 11.238281 C 10.863281 10.828125 10.527344 10.492188 10.113281 10.492188 L 7.863281 10.492188 L 7.863281 8.992188 C 7.855469 8.570312 7.503906 8.234375 7.082031 8.253906 Z M 20.578125 8.253906 C 20.183594 8.269531 19.867188 8.59375 19.863281 8.992188 L 19.863281 10.492188 L 19.113281 10.492188 C 18.144531 10.519531 18.144531 11.960938 19.113281 11.988281 L 19.863281 11.988281 L 19.863281 14.238281 C 19.863281 14.652344 20.199219 14.988281 20.613281 14.988281 L 22.863281 14.988281 C 23.878906 15.003906 23.878906 13.476562 22.863281 13.488281 L 21.363281 13.488281 L 21.363281 11.988281 L 22.863281 11.988281 C 23.894531 12.023438 23.894531 10.457031 22.863281 10.492188 L 21.363281 10.492188 L 21.363281 8.992188 C 21.355469 8.570312 21.003906 8.234375 20.582031 8.253906 Z M 1.113281 10.492188 C 0.699219 10.492188 0.363281 10.824219 0.363281 11.238281 L 0.363281 14.238281 C 0.363281 14.652344 0.699219 14.988281 1.113281 14.988281 L 4.113281 14.988281 C 5.128906 15.003906 5.128906 13.476562 4.113281 13.488281 L 1.863281 13.488281 L 1.863281 11.988281 L 4.113281 11.988281 C 5.128906 12.003906 5.128906 10.476562 4.113281 10.488281 L 1.113281 10.488281 Z M 13.113281 10.492188 C 12.699219 10.492188 12.363281 10.824219 12.363281 11.238281 L 12.363281 14.238281 C 12.363281 14.652344 12.699219 14.988281 13.113281 14.988281 L 14.238281 14.988281 C 15.253906 15.003906 15.253906 13.476562 14.238281 13.488281 L 13.863281 13.488281 L 13.863281 11.988281 L 15.363281 11.988281 L 15.363281 14.238281 C 15.347656 15.253906 16.878906 15.253906 16.863281 14.238281 L 16.863281 11.238281 C 16.863281 10.824219 16.527344 10.492188 16.113281 10.492188 Z M 3.597656 16.488281 L 2.285156 17.800781 C 1.699219 18.390625 1.699219 19.371094 2.285156 19.960938 L 4.394531 22.070312 C 4.980469 22.65625 5.964844 22.65625 6.550781 22.070312 L 12.128906 16.488281 Z M 12.597656 16.488281 L 18.175781 22.070312 C 18.761719 22.65625 19.746094 22.65625 20.332031 22.070312 L 22.441406 19.960938 C 23.03125 19.371094 23.03125 18.390625 22.441406 17.800781 L 21.128906 16.488281 Z M 12.597656 16.488281 "/>
</svg>
